X:1
T:Prélude
T:Americana
T:Magín Alegre (c.1840 - c.1904) 
C:François Campion
%%score { ( 1 2 3 ) ( 4 5 6 ) }
L:1/8
Q:1/4=76
M:2/4
K:G
V:1 treble-8 nm="Guitare classique"
V:2 treble-8 
V:3 treble-8 
V:4 tab stafflines=6 strings=E2,A2,D3,G3,B3,E4 nostems nm="Guitare classique [Tablature]"
V:5 tab stafflines=6 strings=E2,A2,D3,G3,B3,E4 nostems 
V:6 tab stafflines=6 strings=E2,A2,D3,G3,B3,E4 nostems 
V:1
 B (3gfg |:{fg} f2 e2 | z B (3b^ab |{ab} a2 g2 | z!-(!{/g} !-)!b (3b^ab | (3(c'b)a (3gfe | %6
 (3(^de)f (3g{fg}fe | [^DAB]2 z2 | z B (3gfg |{fg} f2 e2 | z e (3e^gb |{d'e'} d'2 c'2 | %12
 z a (3abc' | (3(c'b)e (3efg | (3(ba)B (3B^c^d | [GBe]4 |1 z B (3gfg ::2 z2 ee || ed d'c' | %19
{c'd'} c'b ee | e[Bd]{/e} [Bd][Ac] | (3(([GB][Ac]))[Bd] ee | ed d'c' |{c'd'} c'b ag | fe ^de | %25
 !fermata![FB^dfb]2 ag | fe dc | [^DAB]2"^Hr.12" !fermata!b2 ::[K:E] z B (3Bef | g2 g2 | %30
 z g (3gfe | a2 a2 | z B (3Bdf | a2 a2 | z a (3agf | b2 z2 | z B (3Beg | b2 b2 | z b (3b^ab | %39
 ^b2 c'2 | z B (3Bef | [dg]2 [dg]2 | z f{/g} (3fcd | [Ge]2 z2 | E,4 :| %45
V:2
 x3 |: z2 [EGB]B, | x4 | z2 [GB]B, | x4 | x4 | x4 | x4 | x4 | z2 [EGB]B, | x4 | z2 [ea]c | x4 | %13
 x4 | x4 | x4 |1 x4 ::2 x4 || z c x2 | x4 | x4 | x4 | z c x2 | x4 | x4 | x4 | x4 | x4 ::[K:E] x4 | %29
 z2 [EGB]B, | x4 | z2 [Ad]F | x4 | z2 [Ad]F | x4 | z G BG | x4 | z2 [Be]G | x4 | z2 [ea]c | x4 | %41
 z2 [Ad]F | x4 | z3/2 B,/ EB, | x4 :| %45
V:3
 x3 |: E,4 | E,4 | E,4 | E,4 | E,4 | E,4 | B,>^D AD | B,2 z2 | E,4 | E,4 | A,4 | A,4 | E,4 | %14
 [FB^d] x x2 | E,>B, EB, |1 E,2 z2 ::2 E,2 z2 || D4 | [GB]2 z2 | D4 | G,2 z2 | D4 | [GB]2 z2 | x4 | %25
 B,2 z2 | x4 | B,2 z2 ::[K:E] x4 | E,4 | E,4 | B,4 | B,4 | B,4 | B,4 | E,4 | E,4 | E,4 | E,4 | %39
 A,4 | A,4 | B,4 | B,4 | E,4 | E,4 :| %45
V:4
 !2!B, (3!1!G !1!F !1!G |:{!1!F!1!G} !1!F2 !1!E2 | x !2!B, (3!1!B !1!^A !1!B | %3
{!1!A!1!B} !1!A2 !1!G2 | x!-(!{/!1!G} !-)!!1!B (3!1!B !1!^A !1!B | %5
 (3(!1!c !1!B) !1!A (3!2!G !2!F !1!E | (3(!2!^D !2!E) !1!F (3!1!G{!1!F!1!G} !1!F !1!E | %7
 [!4!^D,!3!A,!2!B,]2 x2 | x !2!B, (3!1!G !1!F !1!G |{!1!F!1!G} !1!F2 !1!E2 | %10
 x !1!E (3!1!E !1!^G !1!B |{!1!d!1!e} !1!d2 !1!c2 | x !1!A (3!1!A !1!B !1!c | %13
 (3(!1!c !1!B) !1!E (3!1!E !1!F !1!G | (3(!1!B !1!A) !2!B, (3!2!B, !2!^C !2!^D | %15
 [!3!G,!2!B,!1!E]4 |1 x !2!B, (3!1!G !1!F !1!G ::2 x2 !1!E !1!E || !1!E !2!D !1!d !1!c | %19
{!1!c!1!d} !1!c !1!B !1!E !1!E | !1!E [!3!B,!2!D]{/!2!E} [!3!B,!2!D] [!3!A,!2!C] | %21
 (3(([!3!G,!2!B,] [!3!A,!2!C])) [!3!B,!2!D] !1!E !1!E | !1!E !2!D !1!d !1!c | %23
{!1!c!1!d} !1!c !1!B !1!A !1!G | !1!F !1!E !2!^D !1!E | [!5!F,!4!B,!3!^D!2!F!1!B]2 !1!A !1!G | %26
 !1!F !1!E !2!D !2!C | [!4!^D,!3!A,!2!B,]2"^Hr." !2!B2 ::[K:E] x !2!B, (3!2!B, !1!E !1!F | %29
 !1!G2 !1!G2 | x !1!G (3!1!G !1!F !1!E | !1!A2 !1!A2 | x !2!B, (3!2!B, !2!D !1!F | !1!A2 !1!A2 | %34
 x !1!A (3!1!A !1!G !1!F | !1!B2 x2 | x !2!B, (3!2!B, !1!E !1!G | !1!B2 !1!B2 | %38
 x !1!B (3!1!B !1!^A !1!B | !1!^B2 !1!c2 | x !2!B, (3!2!B, !1!E !1!F | [!2!D!1!G]2 [!2!D!1!G]2 | %42
 x !1!F{/!1!G} (3!1!F !2!C !2!D | [!3!G,!1!E]2 x2 | x4 :| %45
V:5
 x3 |: x2 [!4!E,!3!G,!2!B,] !5!B,, | x4 | x2 [!3!G,!2!B,] !5!B,, | x4 | x4 | x4 | x4 | x4 | %9
 x2 [!4!E,!3!G,!2!B,] !5!B,, | x4 | x2 [!3!E!2!A] !4!C | x4 | x4 | x4 | x4 |1 x4 ::2 x4 || %18
 x !3!C x2 | x4 | x4 | x4 | x !3!C x2 | x4 | x4 | x4 | x4 | x4 ::[K:E] x4 | %29
 x2 [!4!E,!3!G,!2!B,] !5!B,, | x4 | x2 [!3!A,!2!D] !4!F, | x4 | x2 [!3!A,!2!D] !4!F, | x4 | %35
 x !4!G, !2!B, !4!G, | x4 | x2 [!3!B,!2!E] !4!G, | x4 | x2 [!3!E!2!A] !4!C | x4 | x2 !3!A, !4!F, | %42
 x4 | x3/2 !5!B,,/ !4!E, !5!B,, | x4 :| %45
V:6
 x3 |: !6!E,,4 | !6!E,,4 | !6!E,,4 | !6!E,,4 | !6!E,,4 | !6!E,,4 | !5!B,,3/2 !4!^D,/ !3!A, !4!D, | %8
 !5!B,,2 x2 | !6!E,,4 | !6!E,,4 | !5!A,,4 | !5!A,,4 | !6!E,,4 | [!4!F,!3!B,!2!^D] x x2 | %15
 !6!E,,3/2 !5!B,,/ !4!E, !5!B,, |1 !6!E,,2 x2 ::2 !6!E,,2 x2 || !4!D,4 | [!3!G,!2!B,]2 x2 | %20
 !4!D,4 | !6!G,,2 x2 | !4!D,4 | [!3!G,!2!B,]2 x2 | x4 | !6!B,,2 x2 | x4 | !5!B,,2 x2 ::[K:E] x4 | %29
 !6!E,,4 | !6!E,,4 | !5!B,,4 | !5!B,,4 | !5!B,,4 | !5!B,,4 | !6!E,,4 | !6!E,,4 | !6!E,,4 | %38
 !6!E,,4 | !5!A,,4 | !5!A,,4 | !5!B,,4 | !5!B,,4 | !6!E,,4 | !6!E,,4 :| %45

